assets/svg/money-cal.svg

<?xml version="1.0" encoding="UTF-8"?>
<svg width="545px" height="257px" viewBox="0 0 545 257" version="1.1" xmlns="http://www.w3.org/2000/svg" xmlns:xlink="http://www.w3.org/1999/xlink">
    <!-- Generator: Sketch 43.2 (39069) - http://www.bohemiancoding.com/sketch -->
    <title>money-cal</title>
    <desc>Created with Sketch.</desc>
    <defs></defs>
    <g id="Page-1" stroke="none" stroke-width="1" fill="none" fill-rule="evenodd">
        <g id="money-cal">
            <path d="M199.4905,143.6688 C199.4905,198.7558 154.8325,243.4138 99.7455,243.4138 C44.6575,243.4138 0.0005,198.7558 0.0005,143.6688 C0.0005,88.5808 44.6575,43.9238 99.7455,43.9238 C154.8325,43.9238 199.4905,88.5808 199.4905,143.6688" id="Fill-1" fill="#F2F0C8"></path>
            <path d="M128.7971,176.5623 C128.7971,177.7333 128.7351,178.7283 128.6091,179.5433 C128.4831,180.3593 128.3051,181.0193 128.0751,181.5213 C127.8451,182.0243 127.5831,182.3793 127.2901,182.5873 C126.9971,182.7983 126.6621,182.9023 126.2861,182.9023 L75.9411,182.9023 C75.5641,182.9023 75.2291,182.7983 74.9361,182.5873 C74.6441,182.3793 74.3811,182.0243 74.1521,181.5213 C73.9211,181.0193 73.7431,180.3593 73.6181,179.5433 C73.4921,178.7283 73.4301,177.7333 73.4301,176.5623 C73.4301,175.3493 73.4821,174.3333 73.5871,173.5173 C73.6911,172.7023 73.8591,172.0413 74.0881,171.5403 C74.3181,171.0383 74.5911,170.6823 74.9051,170.4733 C75.2191,170.2633 75.5641,170.1593 75.9411,170.1593 L82.5951,170.1593 L82.5951,147.8113 L75.9411,147.8113 C75.5641,147.8113 75.2291,147.7173 74.9361,147.5283 C74.6441,147.3403 74.3811,147.0063 74.1521,146.5243 C73.9211,146.0433 73.7431,145.4053 73.6181,144.6093 C73.4921,143.8153 73.4301,142.8103 73.4301,141.5963 C73.4301,140.4253 73.4821,139.4423 73.5871,138.6463 C73.6911,137.8513 73.8591,137.2123 74.0881,136.7323 C74.3181,136.2503 74.5911,135.9063 74.9051,135.6953 C75.2191,135.4873 75.5641,135.3813 75.9411,135.3813 L82.5951,135.3813 L82.5951,129.6063 C82.5951,124.5003 83.1601,120.0953 84.2901,116.3923 C85.4201,112.6883 87.0721,109.6443 89.2491,107.2593 C91.4241,104.8743 94.1241,103.1253 97.3471,102.0173 C100.5681,100.9093 104.2741,100.3533 108.4571,100.3533 C110.2991,100.3533 112.0681,100.4903 113.7631,100.7623 C115.4571,101.0343 117.0161,101.4113 118.4401,101.8913 C119.8611,102.3733 121.1491,102.9383 122.3001,103.5863 C123.4511,104.2353 124.2871,104.8333 124.8111,105.3753 C125.3341,105.9203 125.7101,106.3713 125.9421,106.7243 C126.1701,107.0823 126.3491,107.5213 126.4751,108.0433 C126.6001,108.5673 126.6941,109.2053 126.7571,109.9583 C126.8191,110.7103 126.8521,111.6323 126.8521,112.7203 C126.8521,113.8923 126.7981,114.8753 126.6941,115.6703 C126.5891,116.4663 126.4321,117.1043 126.2241,117.5843 C126.0131,118.0673 125.7631,118.4123 125.4701,118.6213 C125.1771,118.8313 124.8621,118.9353 124.5281,118.9353 C123.9421,118.9353 123.2821,118.6423 122.5511,118.0553 C121.8181,117.4693 120.8971,116.8323 119.7881,116.1413 C118.6801,115.4513 117.3721,114.8133 115.8661,114.2263 C114.3591,113.6413 112.5591,113.3483 110.4671,113.3483 C108.3731,113.3483 106.5951,113.6933 105.1311,114.3833 C103.6661,115.0743 102.4741,116.0793 101.5531,117.3973 C100.6321,118.7153 99.9611,120.3473 99.5441,122.2933 C99.1251,124.2393 98.9161,126.4673 98.9161,128.9783 L98.9161,135.3813 L115.8021,135.3813 C116.1791,135.3813 116.5251,135.4873 116.8391,135.6953 C117.1521,135.9063 117.4131,136.2503 117.6221,136.7323 C117.8321,137.2123 118.0001,137.8513 118.1251,138.6463 C118.2501,139.4423 118.3141,140.4253 118.3141,141.5963 C118.3141,142.8103 118.2501,143.8153 118.1251,144.6093 C118.0001,145.4053 117.8211,146.0433 117.5921,146.5243 C117.3611,147.0063 117.1001,147.3403 116.8071,147.5283 C116.5141,147.7173 116.1791,147.8113 115.8021,147.8113 L98.9161,147.8113 L98.9161,170.1593 L126.2861,170.1593 C126.6621,170.1593 127.0081,170.2633 127.3221,170.4733 C127.6351,170.6823 127.8971,171.0383 128.1071,171.5403 C128.3161,172.0413 128.4831,172.7023 128.6091,173.5173 C128.7351,174.3333 128.7971,175.3493 128.7971,176.5623" id="Fill-3" fill="#EDC913"></path>
            <path d="M72.1213,56.1542 L58.7143,25.4502 C57.0453,21.6302 60.4583,17.4682 64.5033,18.4762 C68.7033,19.5232 73.7573,19.8662 79.0303,18.1702 C92.5133,13.8342 103.2833,10.8132 115.5593,17.3552 C120.2503,19.8562 128.1063,18.4422 134.6533,16.4682 C138.8473,15.2042 142.5653,19.4762 140.7263,23.4522 L126.5503,54.1102 L72.1213,56.1542 Z" id="Fill-5" fill="#F2F0C8"></path>
            <path d="M63.7483,48.5868 C63.7483,48.5868 99.5173,64.6868 135.7413,48.5868" id="Stroke-7" stroke="#0067A6" stroke-width="18.348" stroke-linecap="round"></path>
            <path d="M500.4905,221.451 L306.4985,221.451 C304.5825,221.451 303.0145,219.884 303.0145,217.967 L303.0145,23.975 C303.0145,22.058 304.5825,20.491 306.4985,20.491 L500.4905,20.491 C502.4065,20.491 503.9745,22.058 503.9745,23.975 L503.9745,217.967 C503.9745,219.884 502.4065,221.451 500.4905,221.451" id="Fill-9" fill="#6DAADD"></path>
            <path d="M352.5842,38.3251 C352.5842,43.0601 348.7462,46.8981 344.0112,46.8981 C339.2762,46.8981 335.4382,43.0601 335.4382,38.3251 C335.4382,33.5911 339.2762,29.7521 344.0112,29.7521 C348.7462,29.7521 352.5842,33.5911 352.5842,38.3251" id="Fill-11" fill="#0067A6"></path>
            <path d="M344.7122,41.7401 L343.3102,41.7401 C340.5242,41.7401 338.2432,39.4601 338.2432,36.6731 L338.2432,5.0671 C338.2432,2.2801 340.5242,0.0001 343.3102,0.0001 L344.7122,0.0001 C347.4992,0.0001 349.7792,2.2801 349.7792,5.0671 L349.7792,36.6731 C349.7792,39.4601 347.4992,41.7401 344.7122,41.7401" id="Fill-13" fill="#EDC913"></path>
            <path d="M412.0676,38.3251 C412.0676,43.0601 408.2296,46.8981 403.4946,46.8981 C398.7596,46.8981 394.9216,43.0601 394.9216,38.3251 C394.9216,33.5911 398.7596,29.7521 403.4946,29.7521 C408.2296,29.7521 412.0676,33.5911 412.0676,38.3251" id="Fill-15" fill="#0067A6"></path>
            <path d="M404.1956,41.7401 L402.7936,41.7401 C400.0076,41.7401 397.7266,39.4601 397.7266,36.6731 L397.7266,5.0671 C397.7266,2.2801 400.0076,0.0001 402.7936,0.0001 L404.1956,0.0001 C406.9826,0.0001 409.2626,2.2801 409.2626,5.0671 L409.2626,36.6731 C409.2626,39.4601 406.9826,41.7401 404.1956,41.7401" id="Fill-17" fill="#EDC913"></path>
            <path d="M471.551,38.3251 C471.551,43.0601 467.713,46.8981 462.978,46.8981 C458.243,46.8981 454.405,43.0601 454.405,38.3251 C454.405,33.5911 458.243,29.7521 462.978,29.7521 C467.713,29.7521 471.551,33.5911 471.551,38.3251" id="Fill-19" fill="#0067A6"></path>
            <path d="M463.679,41.7401 L462.277,41.7401 C459.491,41.7401 457.21,39.4601 457.21,36.6731 L457.21,5.0671 C457.21,2.2801 459.491,0.0001 462.277,0.0001 L463.679,0.0001 C466.466,0.0001 468.746,2.2801 468.746,5.0671 L468.746,36.6731 C468.746,39.4601 466.466,41.7401 463.679,41.7401" id="Fill-21" fill="#EDC913"></path>
            <path d="M324.0442,80.4442 L482.9452,80.4442" id="Stroke-23" stroke="#0067A6" stroke-width="5.459" stroke-linecap="round"></path>
            <path d="M324.0442,101.0868 L482.9452,101.0868" id="Stroke-25" stroke="#0067A6" stroke-width="5.459" stroke-linecap="round"></path>
            <path d="M324.0442,121.7293 L482.9452,121.7293" id="Stroke-27" stroke="#0067A6" stroke-width="5.459" stroke-linecap="round"></path>
            <path d="M324.0442,142.3719 L482.9452,142.3719" id="Stroke-29" stroke="#0067A6" stroke-width="5.459" stroke-linecap="round"></path>
            <path d="M324.0442,163.0135 L482.9452,163.0135" id="Stroke-31" stroke="#0067A6" stroke-width="5.459" stroke-linecap="round"></path>
            <path d="M324.0442,183.6561 L482.9452,183.6561" id="Stroke-33" stroke="#0067A6" stroke-width="5.459" stroke-linecap="round"></path>
            <path d="M344.4407,60.3338 L344.4407,203.7678" id="Stroke-35" stroke="#0067A6" stroke-width="5.459" stroke-linecap="round"></path>
            <path d="M383.8098,60.3338 L383.8098,203.7678" id="Stroke-37" stroke="#0067A6" stroke-width="5.459" stroke-linecap="round"></path>
            <path d="M423.179,60.3338 L423.179,203.7678" id="Stroke-39" stroke="#0067A6" stroke-width="5.459" stroke-linecap="round"></path>
            <path d="M462.5491,60.3338 L462.5491,203.7678" id="Stroke-41" stroke="#0067A6" stroke-width="5.459" stroke-linecap="round"></path>
            <path d="M532.3333,219.1405 C521.3293,244.1635 492.1233,255.5305 467.0993,244.5265 C442.0753,233.5225 430.7093,204.3155 441.7133,179.2915 C452.7173,154.2675 481.9233,142.9025 506.9473,153.9065 C531.9713,164.9105 543.3373,194.1165 532.3333,219.1405" id="Fill-43" fill="#F2F0C8"></path>
            <path d="M532.3333,219.1405 C521.3293,244.1635 492.1233,255.5305 467.0993,244.5265 C442.0753,233.5225 430.7093,204.3155 441.7133,179.2915 C452.7173,154.2675 481.9233,142.9025 506.9473,153.9065 C531.9713,164.9105 543.3373,194.1165 532.3333,219.1405 Z" id="Stroke-45" stroke="#E3DB7C" stroke-width="16.499"></path>
            <path d="M499.5579,215.033 C499.5579,215.563 499.5299,216.014 499.4719,216.384 C499.4149,216.753 499.3349,217.052 499.2309,217.279 C499.1259,217.507 499.0079,217.667 498.8749,217.762 C498.7429,217.857 498.5909,217.904 498.4209,217.904 L475.6249,217.904 C475.4549,217.904 475.3029,217.857 475.1709,217.762 C475.0379,217.667 474.9189,217.507 474.8159,217.279 C474.7109,217.052 474.6309,216.753 474.5739,216.384 C474.5169,216.014 474.4889,215.563 474.4889,215.033 C474.4889,214.484 474.5119,214.024 474.5599,213.655 C474.6069,213.285 474.6829,212.987 474.7869,212.76 C474.8909,212.532 475.0139,212.371 475.1569,212.276 C475.2989,212.181 475.4549,212.135 475.6249,212.135 L478.6389,212.135 L478.6389,202.015 L475.6249,202.015 C475.4549,202.015 475.3029,201.973 475.1709,201.887 C475.0379,201.803 474.9189,201.651 474.8159,201.433 C474.7109,201.216 474.6309,200.927 474.5739,200.566 C474.5169,200.207 474.4889,199.752 474.4889,199.202 C474.4889,198.672 474.5119,198.226 474.5599,197.866 C474.6069,197.507 474.6829,197.217 474.7869,196.999 C474.8909,196.781 475.0139,196.625 475.1569,196.53 C475.2989,196.435 475.4549,196.388 475.6249,196.388 L478.6389,196.388 L478.6389,193.773 C478.6389,191.462 478.8939,189.467 479.4059,187.79 C479.9169,186.113 480.6649,184.735 481.6519,183.655 C482.6359,182.575 483.8589,181.783 485.3179,181.281 C486.7769,180.78 488.4539,180.528 490.3479,180.528 C491.1819,180.528 491.9829,180.59 492.7499,180.713 C493.5179,180.837 494.2229,181.007 494.8679,181.224 C495.5119,181.442 496.0939,181.698 496.6159,181.992 C497.1369,182.286 497.5159,182.556 497.7529,182.803 C497.9899,183.049 498.1599,183.253 498.2649,183.413 C498.3689,183.574 498.4499,183.773 498.5059,184.011 C498.5629,184.247 498.6059,184.536 498.6339,184.877 C498.6619,185.218 498.6769,185.635 498.6769,186.128 C498.6769,186.658 498.6529,187.103 498.6059,187.464 C498.5579,187.823 498.4869,188.112 498.3929,188.33 C498.2969,188.549 498.1839,188.705 498.0509,188.799 C497.9179,188.894 497.7759,188.941 497.6249,188.941 C497.3599,188.941 497.0609,188.808 496.7299,188.543 C496.3979,188.278 495.9809,187.989 495.4789,187.677 C494.9769,187.364 494.3849,187.075 493.7029,186.809 C493.0199,186.545 492.2049,186.412 491.2579,186.412 C490.3099,186.412 489.5049,186.568 488.8419,186.881 C488.1789,187.193 487.6389,187.648 487.2219,188.245 C486.8049,188.842 486.5009,189.581 486.3129,190.462 C486.1229,191.343 486.0289,192.351 486.0289,193.489 L486.0289,196.388 L493.6739,196.388 C493.8449,196.388 494.0009,196.435 494.1429,196.53 C494.2859,196.625 494.4039,196.781 494.4979,196.999 C494.5929,197.217 494.6689,197.507 494.7259,197.866 C494.7829,198.226 494.8109,198.672 494.8109,199.202 C494.8109,199.752 494.7829,200.207 494.7259,200.566 C494.6689,200.927 494.5879,201.216 494.4839,201.433 C494.3799,201.651 494.2609,201.803 494.1289,201.887 C493.9959,201.973 493.8449,202.015 493.6739,202.015 L486.0289,202.015 L486.0289,212.135 L498.4209,212.135 C498.5909,212.135 498.7469,212.181 498.8899,212.276 C499.0319,212.371 499.1499,212.532 499.2459,212.76 C499.3389,212.987 499.4149,213.285 499.4719,213.655 C499.5299,214.024 499.5579,214.484 499.5579,215.033" id="Fill-47" fill="#EDC913"></path>
        </g>
    </g>
</svg>

<svg id="Layer_1" data-name="Layer 1" xmlns="http://www.w3.org/2000/svg" viewBox="0 0 544.78 256.98">
  <title>money-cal</title>
  <g id="Page-1">
    <g id="money-cal">
      <path id="Fill-1" d="M199.49,143.67A99.74,99.74,0,1,1,99.75,43.92a99.75,99.75,0,0,1,99.74,99.74" transform="translate(0 0)" style="fill: #f2f0c8"/>
      <path id="Fill-3" d="M128.8,176.56a20,20,0,0,1-.19,3,7.63,7.63,0,0,1-.53,2,2.6,2.6,0,0,1-.79,1.07,1.67,1.67,0,0,1-1,.32H75.94a1.67,1.67,0,0,1-1-.32,2.6,2.6,0,0,1-.78-1.07,7.56,7.56,0,0,1-.53-2,20,20,0,0,1-.19-3,24.53,24.53,0,0,1,.16-3,7,7,0,0,1,.5-2,2.48,2.48,0,0,1,.82-1.07,1.82,1.82,0,0,1,1-.31H82.6V147.81H75.94a1.81,1.81,0,0,1-1-.28,2.36,2.36,0,0,1-.78-1,7,7,0,0,1-.53-1.92,19.82,19.82,0,0,1-.19-3,23.13,23.13,0,0,1,.16-2.95,6.47,6.47,0,0,1,.5-1.91,2.51,2.51,0,0,1,.82-1,1.84,1.84,0,0,1,1-.31H82.6v-5.78a45.55,45.55,0,0,1,1.69-13.21,23.47,23.47,0,0,1,5-9.13,19.2,19.2,0,0,1,8.1-5.24,34.11,34.11,0,0,1,11.11-1.66,33.46,33.46,0,0,1,5.31.41,29.08,29.08,0,0,1,4.68,1.13,22.76,22.76,0,0,1,3.86,1.7,11.28,11.28,0,0,1,2.51,1.79,10.18,10.18,0,0,1,1.13,1.35,4.34,4.34,0,0,1,.53,1.32,13.11,13.11,0,0,1,.28,1.92q.09,1.13.09,2.76a23.27,23.27,0,0,1-.16,3,7.33,7.33,0,0,1-.47,1.91,2.43,2.43,0,0,1-.75,1,1.59,1.59,0,0,1-.94.31,3.31,3.31,0,0,1-2-.88,29.29,29.29,0,0,0-2.76-1.91,23.75,23.75,0,0,0-3.92-1.91,14.92,14.92,0,0,0-5.4-.88,12.45,12.45,0,0,0-5.34,1,9,9,0,0,0-3.58,3,13.34,13.34,0,0,0-2,4.9,32,32,0,0,0-.63,6.69v6.4H115.8a1.84,1.84,0,0,1,1,.31,2.31,2.31,0,0,1,.78,1,8,8,0,0,1,.5,1.91,19.44,19.44,0,0,1,.19,2.95,19.93,19.93,0,0,1-.19,3,7.09,7.09,0,0,1-.53,1.92,2.37,2.37,0,0,1-.79,1,1.81,1.81,0,0,1-1,.28H98.92v22.35h27.37a1.83,1.83,0,0,1,1,.31,2.31,2.31,0,0,1,.79,1.07,8.73,8.73,0,0,1,.5,2,20.49,20.49,0,0,1,.19,3" transform="translate(0 0)" style="fill: #edc913"/>
      <path id="Fill-5" d="M72.12,56.15,58.71,25.45a5.06,5.06,0,0,1,5.79-7A26.3,26.3,0,0,0,79,18.17c13.48-4.34,24.25-7.36,36.53-.82,4.69,2.5,12.55,1.09,19.09-.89a5.07,5.07,0,0,1,6.07,7L126.55,54.11Z" transform="translate(0 0)" style="fill: #f2f0c8"/>
      <path id="Stroke-7" d="M63.75,48.59s35.77,16.1,72,0" transform="translate(0 0)" style="fill: none;stroke: #0067a6;stroke-linecap: round;stroke-width: 18.347999572753906px"/>
      <path id="Fill-9" d="M500.49,221.45h-194A3.49,3.49,0,0,1,303,218V24a3.49,3.49,0,0,1,3.48-3.48h194A3.49,3.49,0,0,1,504,24V218a3.49,3.49,0,0,1-3.48,3.48" transform="translate(0 0)" style="fill: #6daadd"/>
      <path id="Fill-11" d="M352.58,38.33A8.57,8.57,0,1,1,344,29.75a8.57,8.57,0,0,1,8.57,8.57" transform="translate(0 0)" style="fill: #0067a6"/>
      <path id="Fill-13" d="M344.71,41.74h-1.4a5.08,5.08,0,0,1-5.07-5.07V5.07A5.08,5.08,0,0,1,343.31,0h1.4a5.08,5.08,0,0,1,5.07,5.07V36.67a5.08,5.08,0,0,1-5.07,5.07" transform="translate(0 0)" style="fill: #edc913"/>
      <path id="Fill-15" d="M412.07,38.33a8.57,8.57,0,1,1-8.57-8.57,8.57,8.57,0,0,1,8.57,8.57" transform="translate(0 0)" style="fill: #0067a6"/>
      <path id="Fill-17" d="M404.2,41.74h-1.4a5.08,5.08,0,0,1-5.07-5.07V5.07A5.08,5.08,0,0,1,402.79,0h1.4a5.08,5.08,0,0,1,5.07,5.07V36.67a5.08,5.08,0,0,1-5.07,5.07" transform="translate(0 0)" style="fill: #edc913"/>
      <path id="Fill-19" d="M471.55,38.33A8.57,8.57,0,1,1,463,29.75a8.57,8.57,0,0,1,8.57,8.57" transform="translate(0 0)" style="fill: #0067a6"/>
      <path id="Fill-21" d="M463.68,41.74h-1.4a5.08,5.08,0,0,1-5.07-5.07V5.07A5.08,5.08,0,0,1,462.28,0h1.4a5.08,5.08,0,0,1,5.07,5.07V36.67a5.08,5.08,0,0,1-5.07,5.07" transform="translate(0 0)" style="fill: #edc913"/>
      <path id="Stroke-23" d="M324,80.44h158.9" transform="translate(0 0)" style="fill: none;stroke: #0067a6;stroke-linecap: round;stroke-width: 5.459000110626221px"/>
      <path id="Stroke-25" d="M324,101.09h158.9" transform="translate(0 0)" style="fill: none;stroke: #0067a6;stroke-linecap: round;stroke-width: 5.459000110626221px"/>
      <path id="Stroke-27" d="M324,121.73h158.9" transform="translate(0 0)" style="fill: none;stroke: #0067a6;stroke-linecap: round;stroke-width: 5.459000110626221px"/>
      <path id="Stroke-29" d="M324,142.37h158.9" transform="translate(0 0)" style="fill: none;stroke: #0067a6;stroke-linecap: round;stroke-width: 5.459000110626221px"/>
      <path id="Stroke-31" d="M324,163h158.9" transform="translate(0 0)" style="fill: none;stroke: #0067a6;stroke-linecap: round;stroke-width: 5.459000110626221px"/>
      <path id="Stroke-33" d="M324,183.66h158.9" transform="translate(0 0)" style="fill: none;stroke: #0067a6;stroke-linecap: round;stroke-width: 5.459000110626221px"/>
      <path id="Stroke-35" d="M344.44,60.33V203.77" transform="translate(0 0)" style="fill: none;stroke: #0067a6;stroke-linecap: round;stroke-width: 5.459000110626221px"/>
      <path id="Stroke-37" d="M383.81,60.33V203.77" transform="translate(0 0)" style="fill: none;stroke: #0067a6;stroke-linecap: round;stroke-width: 5.459000110626221px"/>
      <path id="Stroke-39" d="M423.18,60.33V203.77" transform="translate(0 0)" style="fill: none;stroke: #0067a6;stroke-linecap: round;stroke-width: 5.459000110626221px"/>
      <path id="Stroke-41" d="M462.55,60.33V203.77" transform="translate(0 0)" style="fill: none;stroke: #0067a6;stroke-linecap: round;stroke-width: 5.459000110626221px"/>
      <path id="Fill-43" d="M532.33,219.14a49.5,49.5,0,1,1-25.39-65.23,49.5,49.5,0,0,1,25.39,65.23" transform="translate(0 0)" style="fill: #f2f0c8"/>
      <path id="Stroke-45" d="M532.33,219.14a49.5,49.5,0,1,1-25.39-65.23A49.5,49.5,0,0,1,532.33,219.14Z" transform="translate(0 0)" style="fill: none;stroke: #e3db7c;stroke-width: 16.499000549316406px"/>
      <path id="Fill-47" d="M499.56,215a8.92,8.92,0,0,1-.09,1.35,3.46,3.46,0,0,1-.24.9,1.19,1.19,0,0,1-.36.48.76.76,0,0,1-.45.14h-22.8a.76.76,0,0,1-.45-.14,1.17,1.17,0,0,1-.36-.48,3.42,3.42,0,0,1-.24-.9,9.07,9.07,0,0,1-.09-1.35,11,11,0,0,1,.07-1.38,3.13,3.13,0,0,1,.23-.9,1.12,1.12,0,0,1,.37-.48.82.82,0,0,1,.47-.14h3V202h-3a.81.81,0,0,1-.45-.13,1,1,0,0,1-.36-.45,3.16,3.16,0,0,1-.24-.87,9,9,0,0,1-.09-1.36,10.39,10.39,0,0,1,.07-1.34,2.93,2.93,0,0,1,.23-.87,1.12,1.12,0,0,1,.37-.47.82.82,0,0,1,.47-.14h3v-2.62a20.62,20.62,0,0,1,.77-6,10.6,10.6,0,0,1,2.25-4.13,8.69,8.69,0,0,1,3.67-2.37,15.46,15.46,0,0,1,5-.75,15.16,15.16,0,0,1,2.4.18,13.28,13.28,0,0,1,2.12.51,10.25,10.25,0,0,1,1.75.77,5.06,5.06,0,0,1,1.14.81,4.53,4.53,0,0,1,.51.61,1.9,1.9,0,0,1,.24.6,5.77,5.77,0,0,1,.13.87q0,.51,0,1.25a10.59,10.59,0,0,1-.07,1.34,3.36,3.36,0,0,1-.21.87,1.09,1.09,0,0,1-.34.47.72.72,0,0,1-.43.14,1.5,1.5,0,0,1-.9-.4,13.2,13.2,0,0,0-1.25-.87,10.73,10.73,0,0,0-1.78-.87,6.78,6.78,0,0,0-2.45-.4,5.63,5.63,0,0,0-2.42.47,4,4,0,0,0-1.62,1.36,6,6,0,0,0-.91,2.22,14.44,14.44,0,0,0-.28,3v2.9h7.64a.82.82,0,0,1,.47.14,1,1,0,0,1,.35.47,3.66,3.66,0,0,1,.23.87,8.76,8.76,0,0,1,.09,1.34,9,9,0,0,1-.09,1.36,3.2,3.2,0,0,1-.24.87,1.06,1.06,0,0,1-.35.45.82.82,0,0,1-.46.13H486v10.12h12.39a.83.83,0,0,1,.47.14,1.05,1.05,0,0,1,.36.48,4,4,0,0,1,.23.9,9.12,9.12,0,0,1,.09,1.38" transform="translate(0 0)" style="fill: #edc913"/>
    </g>
  </g>
</svg>
